X: 3028
T: LORD DRUMMOND
Q:"Reel."
R: Reel.
%R:reel
B: James Kerr "Merry Melodies" v.3 p.6 #28
Z: 2016 John Chambers <jc:trillian.mit.edu>
M: C
L: 1/8
K: D
|:\
Addc B2(Ad) | BABd edef |\
Addc B2(AF) | EDEF D/D/D D2 ::\
abaf defd | gagf efge |\
abaf defd | egfe d/d/d d2 :|

%%sep 1 1 500
%%sep 1 1 500

